src/assets/img/shape-tube-1.svg

<svg fill="none" height="65" viewBox="0 0 69 65" width="69" xmlns="http://www.w3.org/2000/svg"><path d="m68.9998 34.7304c.014 3.7859-.7039 7.5374-2.1124 11.0392-1.4197 3.5849-3.5172 6.8488-6.1726 9.6049s-5.8165 4.9505-9.3026 6.4576c-3.4862 1.507-7.2289 2.2972-11.0143 2.3254-3.7853.0282-7.5389-.7062-11.0462-2.1611-4.5091-1.9921-9.0996-3.8596-13.1619-6.1421-6.84951-3.393-12.10038-9.4252-14.5988-16.7711-2.498432-7.3459-2.040028-15.4047 1.27448-22.4055 3.34463-7.00678 9.27422-12.37124 16.48702-14.91562 7.2127-2.544369 15.119-2.060673 21.983 1.34488 3.128 1.53552 6.3372 2.98805 9.587 4.35756 5.3408 2.17084 9.9198 5.93098 13.1431 10.79288 3.2234 4.8618 4.9425 10.601 4.9342 16.473zm-44.6853-5.1875c.0093.4803.0915.9563.2437 1.411.1929.5617.4934 1.0786.884 1.5203.3906.4418.8634.7997 1.3909 1.0527 3.7779 1.8676 7.6777 3.6521 11.6588 5.3121 1.0834.4384 2.2923.4229 3.3645-.0432 1.0722-.4662 1.9214-1.3453 2.3633-2.4468.2244-.5375.3352-1.1173.325-1.7016-.008-.893-.2746-1.7637-.7661-2.5022-.4916-.7386-1.1862-1.3119-1.9962-1.6478-3.778-1.577-7.5153-3.2786-11.0901-5.0631-.6797-.3281-1.4294-.4758-2.1798-.4293-.7504.0464-1.4771.2856-2.113.6952s-1.1603.9765-1.5248 1.6482-.5572 1.4265-.5602 2.1945z" fill="#adf7b6"/></svg>

<svg width="69" height="65" viewBox="0 0 69 65" fill="none" xmlns="http://www.w3.org/2000/svg">
<path d="M68.9998 34.7304C69.0138 38.5163 68.2959 42.2678 66.8874 45.7696C65.4677 49.3545 63.3702 52.6184 60.7148 55.3745C58.0594 58.1306 54.8983 60.325 51.4122 61.8321C47.926 63.3391 44.1833 64.1293 40.3979 64.1575C36.6126 64.1857 32.859 63.4513 29.3517 61.9964C24.8426 60.0043 20.2521 58.1368 16.1898 55.8543C9.34029 52.4613 4.08942 46.4291 1.591 39.0832C-0.907432 31.7373 -0.449028 23.6785 2.86548 16.6777C6.21011 9.67092 12.1397 4.30646 19.3525 1.76208C26.5652 -0.782289 34.4715 -0.298593 41.3355 3.10696C44.4635 4.64248 47.6727 6.09501 50.9225 7.46452C56.2633 9.63536 60.8423 13.3955 64.0656 18.2574C67.289 23.1192 69.0081 28.8584 68.9998 34.7304ZM24.3145 29.5429C24.3238 30.0232 24.406 30.4992 24.5582 30.9539C24.7511 31.5156 25.0516 32.0325 25.4422 32.4742C25.8328 32.916 26.3056 33.2739 26.8331 33.5269C30.611 35.3945 34.5108 37.179 38.4919 38.839C39.5753 39.2774 40.7842 39.2619 41.8564 38.7958C42.9286 38.3296 43.7778 37.4505 44.2197 36.349C44.4441 35.8115 44.5549 35.2317 44.5447 34.6474C44.5367 33.7544 44.2701 32.8837 43.7786 32.1452C43.287 31.4066 42.5924 30.8333 41.7824 30.4974C38.0044 28.9204 34.2671 27.2188 30.6923 25.4343C30.0126 25.1062 29.2629 24.9585 28.5125 25.005C27.7621 25.0514 27.0354 25.2906 26.3995 25.7002C25.7636 26.1098 25.2392 26.6767 24.8747 27.3484C24.5102 28.0201 24.3175 28.7749 24.3145 29.5429Z" fill="#ADF7B6"/>
</svg>
